icons/four-by-three-grid-16.svg

<?xml version="1.0" encoding="UTF-8"?><svg id="icons" xmlns="http://www.w3.org/2000/svg" viewBox="0 0 16 16"><defs><style>.cls-1{fill:none;}.cls-1,.cls-2,.cls-3{stroke-width:0px;}.cls-2{opacity:.5;}</style></defs><path class="cls-3" d="m16,16H1V1h15v15Zm-14-1h13V2H2v13Z"/><path class="cls-2" d="m5,5h-2v-2h2v2Zm3-2h-2v2h2v-2Zm3,0h-2v2h2v-2Zm3,0h-2v2h2v-2Zm-9,3h-2v2h2v-2Zm3,0h-2v2h2v-2Zm3,0h-2v2h2v-2Zm3,0h-2v2h2v-2Zm-9,3h-2v2h2v-2Zm3,0h-2v2h2v-2Zm3,0h-2v2h2v-2Zm3,0h-2v2h2v-2Z"/><rect class="cls-1" width="16" height="16"/></svg>

<svg xmlns="http://www.w3.org/2000/svg" viewBox="0 0 16 16"><path d="M16 16H1V1h15v15zM2 15h13V2H2v13z" stroke-width="0"/><path d="M5 5H3V3h2v2zm3-2H6v2h2V3zm3 0H9v2h2V3zm3 0h-2v2h2V3zM5 6H3v2h2V6zm3 0H6v2h2V6zm3 0H9v2h2V6zm3 0h-2v2h2V6zM5 9H3v2h2V9zm3 0H6v2h2V9zm3 0H9v2h2V9zm3 0h-2v2h2V9z" opacity=".5" stroke-width="0"/><path stroke-width="0" fill="none" d="M0 0h16v16H0z"/></svg>
